contributed-vectors/midi_keyboard.svg

<svg xmlns="http://www.w3.org/2000/svg" width="192" height="192" fill="none"><g clip-path="url(#a)"><path fill="#56595B" d="M175.7 97c0 35-22.6 64.7-54 75.4l-5.1-13.6H74.9l-4.6 13.5c-31.4-10.7-54-40.5-54-75.4 0-14.8 4.1-28.7 11.1-40.6v57.1h32.3V26.1c6.3-3.2 13-5.6 20.1-7.1v94.5h32.3V19c6.9 1.4 13.4 3.7 19.5 6.8v87.7h32.3V55.4c7.5 12.1 11.8 26.4 11.8 41.6Z"/><path fill="#fff" d="M175.7 97c0 35-22.6 64.7-54 75.4l-5.1-13.6H74.9l-4.6 13.5c-31.4-10.7-54-40.5-54-75.4 0-14.8 4.1-28.7 11.1-40.6v57.1h32.3V26.1c6.3-3.2 13-5.6 20.1-7.1v94.5h32.3V19c6.9 1.4 13.4 3.7 19.5 6.8v87.7h32.3V55.4c7.5 12.1 11.8 26.4 11.8 41.6Z"/><path fill="#56595B" d="M163.9 41.1c-8.7-10.5-19.7-19-32.3-24.6C120.8 11.7 108.7 9 96 9c-12.9 0-25.2 2.8-36.3 7.8C47.1 22.5 36 31.2 27.4 41.9 15.3 57 8 76.2 8 97c0 37.6 23.9 71.1 59.6 83.3l7.9 2.7 5.4-15.8h29.9l5.9 15.7 7.7-2.6C160 168.2 184 134.7 184 97c0-21.2-7.5-40.7-20.1-55.9ZM16.3 97c0-14.8 4.1-28.7 11.1-40.6v57.1h14.4v41.9C26.2 140.8 16.3 120 16.3 97Zm58.6 61.9-4.6 13.5c-9.1-3.1-17.5-7.8-24.8-13.8v-45.1h14.2V26.1c6.3-3.2 13-5.6 20.1-7.1v94.5h13.8v45.4H74.9Zm46.7 13.5-5.1-13.6H97.3v-45.4h14.8V19c6.9 1.4 13.4 3.7 19.5 6.8v87.7h14.2v45.6c-7.1 5.8-15.3 10.3-24.2 13.3Zm27.9-16.4v-42.5h14.4V55.4c7.4 12.1 11.7 26.4 11.7 41.6.1 23.3-10 44.4-26.1 59Z"/></g><defs><clipPath id="a"><path fill="#fff" d="M0 0h192v192H0z"/></clipPath></defs></svg>

<svg width="192" height="192" viewBox="0 0 192 192" fill="none" xmlns="http://www.w3.org/2000/svg">
<g clip-path="url(#clip0)">
<path d="M175.7 97C175.7 132 153.1 161.7 121.7 172.4L116.6 158.8H74.9001L70.3 172.3C38.9 161.6 16.3 131.8 16.3 96.9C16.3 82.1 20.4 68.2 27.4 56.3V113.4H59.7001V26.1C66 22.9 72.7001 20.5 79.8001 19V113.5H112.1V19C119 20.4 125.5 22.7 131.6 25.8V113.5H163.9V55.4C171.4 67.5 175.7 81.8 175.7 97Z" fill="#56595B"/>
<path d="M175.7 97C175.7 132 153.1 161.7 121.7 172.4L116.6 158.8H74.9001L70.3 172.3C38.9 161.6 16.3 131.8 16.3 96.9C16.3 82.1 20.4 68.2 27.4 56.3V113.4H59.7001V26.1C66 22.9 72.7001 20.5 79.8001 19V113.5H112.1V19C119 20.4 125.5 22.7 131.6 25.8V113.5H163.9V55.4C171.4 67.5 175.7 81.8 175.7 97Z" fill="white"/>
<path d="M163.9 41.1C155.2 30.6 144.2 22.1 131.6 16.5C120.8 11.7 108.7 9 96 9C83.1 9 70.8 11.8 59.7 16.8C47.1 22.5 36 31.2 27.4 41.9C15.3 57 8 76.2 8 97C8 134.6 31.9 168.1 67.6 180.3L75.5 183L80.9 167.2H110.8L116.7 182.9L124.4 180.3C160 168.2 184 134.7 184 97C184 75.8 176.5 56.3 163.9 41.1ZM16.3 97C16.3 82.2 20.4 68.3 27.4 56.4V113.5H41.8V155.4C26.2 140.8 16.3 120 16.3 97ZM74.9 158.9L70.3 172.4C61.2 169.3 52.8 164.6 45.5 158.6V113.5H59.7V26.1C66 22.9 72.7 20.5 79.8 19V113.5H93.6V158.9H74.9ZM121.6 172.4L116.5 158.8H97.3V113.4H112.1V19C119 20.4 125.5 22.7 131.6 25.8V113.5H145.8V159.1C138.7 164.9 130.5 169.4 121.6 172.4ZM149.5 156V113.5H163.9V55.4C171.3 67.5 175.6 81.8 175.6 97C175.7 120.3 165.6 141.4 149.5 156Z" fill="#56595B"/>
</g>
<defs>
<clipPath id="clip0">
<rect width="192" height="192" fill="white"/>
</clipPath>
</defs>
</svg>
